X: 2296
T: Back To The Island
R: reel
M: 4/4
K: Edorian
B2>A2 BE E2|F/E/D AD FA A2|B2>c2 d2 de|fdef dBA=c|
BAFA BE E2|EDAD FA A2|B2>c2 d2 de|fdBA FE E2|
E2 BA BE E2|F2 DE FA A2|B2>c2 d2 de|fdef dBAB|
BAFA BE E2|EDAD FA A2|B3c d2 de|fdBA FE E2||
Befe Befe|A2>F2 A3 z|Be e2 Befe|ABBA FE E2|
Be e2 B2 fe|ABAF A3F|B3A B2 FA|B/c/d AF fe e2|
Be e2 Befe|A2>F2 A3F|Befe Befe|A2 BA Fe e2|
Be e2 Befe|A2>F2 A3F|B3 A BAFA|B2 AF FEED||

